X: 110
T:A miña burriña
M:3/4
L:1/8
Q:200
C:Trad.
R:Jota
K:CMin
CDEF | G2G2G2| G2A2F2 | G2E2 G2- | G2 FGFE |F2D2F2- | F2E2D2 |
EDC4-| C2 :| C2E2 |G4G2-| G2 A2F2| "~"A2 G4- | G2 G2 c2| =B4 G2- | G2A2F
2 | 
"~"A2G4-| G6 |: F2F2G2 |A2G2F2 |F2E2G2- | G2F2E2 |E2D2F2- | F2E2D2 |
EDC4-|1 C6 :|2 C2

